X: 35292
T: Rose Of Fylde, The
R: strathspey
M: 4/4
K: Edorian
"G" B2 Bc "F#m" BAFA|1 "Em" B2 E2 "A" E2 FE:|2 "F#m" BA FA "A"E2||
"D" D2 de f2 d2|"G" B>AB<d "A" e2 dc|"G" B>cd<B "Em" G2 AB|
[1 "D" A<dfg "A" e2 dc|"G" BA dA BA "F#m" F<A|"Em" B2 E2 "A" E2 FA:|
[2 "D" A<dFD "A" E2 FA|"G" B2 Bc BA "F#m" FA|"Em" B2 E2 "A" E2||

